!!!OTL: Xiaochanggong
!!!ARE: Asia, China,ÿZhejiang, Yuhang
!! III, 632
!!!SCT: C1622
!!!YEM: Copyright 1995, estate of Helmut Schaffrath.
**kern
*ICvox
*Ivox
*M2/4
*k[f#]
*G:
{8e
8g
8a
8a
=1
8g
8dd
4a
=2
8a
8dd
4dd
=3
2a
=4
4dd
4a
=5
2g}
=6
{8e
8g
8a
8a
=7
8a
8ee
4dd
=8
2e
=9
8dd
8dd
4dd
=10
2a
=11
4dd
4a
=12
2g}
=13
{8e
8g
8a
8a
=14
8a
8ee
4dd
=15
2e
=16
8a
8dd
4dd
=17
2a
=18
8g
8a
4g}
=19
{8e
8g
8a
8a
=20
8g
8b
4a
=21
8dd
8dd
4dd
=22
2a
=23
4g
4a
=24
2g}
==
!!!AGN: Shange. Suku
!!!AMT: simple duple
!!!AIN: vox
!!!EED: Helmut Schaffrath
!!!EEV: 1.0
*-
